resources/style/windowed.svg

<?xml version="1.0" encoding="iso-8859-1"?>
<!DOCTYPE svg PUBLIC "-//W3C//DTD SVG 20000303 Stylable//EN"
"http://www.w3.org/TR/2000/03/WD-SVG-20000303/DTD/svg-20000303-stylable.dtd">
<!-- Generator: --> 
<svg width="512pt" height="512pt" viewBox="0 0 512 512">
	<g  id="FRAME_0" style="visibility:visible" fill-rule="evenodd">
		<path style="fill:rgb(255,255,255);opacity:1;stroke-width:0"
		 d="M279.750000,377.000000 L279.750000,231.250000 L134.250000,231.250000 L134.250000,377.000000 L279.750000,377.000000 M110.000000,392.500000 L110.000000,401.250000 L120.750000,401.250000 Q114.250000,399.500000 113.750000,398.250000 L110.000000,392.500000 M110.000000,215.750000 L113.000000,210.750000 Q115.750000,207.500000 121.500000,207.000000 L286.000000,207.000000 Q297.500000,206.500000 299.750000,209.750000 Q303.500000,212.000000 304.250000,218.750000 L304.250000,387.500000 Q306.250000,396.500000 293.000000,401.250000 L401.000000,401.000000 L401.000000,110.000000 L110.000000,110.000000 L110.000000,215.750000 M427.000000,449.750000 L84.250000,449.750000 Q77.500000,449.750000 68.750000,443.250000 L64.500000,438.000000 L62.250000,432.750000 L61.250000,427.000000 L61.250000,89.250000 Q59.250000,80.000000 68.250000,68.500000 L73.000000,64.750000 L78.250000,62.500000 L84.000000,61.500000 L426.750000,61.500000 Q433.500000,61.000000 442.250000,68.000000 Q446.500000,70.250000 449.750000,84.250000 L449.750000,425.500000 Q448.000000,446.750000 427.000000,449.750000 "/>
		<path style="stroke:rgb(0,0,0);stroke-width:2.150000;stroke-linecap:round;stroke-linejoin:round;fill:none"
		 d="M134.250000,377.000000 L134.250000,231.250000 L279.750000,231.250000 L279.750000,377.000000 L134.250000,377.000000 		"/>
		<path style="stroke:rgb(0,0,0);stroke-width:2.150000;stroke-linecap:round;stroke-linejoin:round;fill:none"
		 d="M110.000000,392.500000 L110.000000,401.250000 L120.750000,401.250000 Q114.250000,399.500000 113.750000,398.250000 L110.000000,392.500000 L110.000000,215.750000 L113.000000,210.750000 Q115.750000,207.500000 121.500000,207.000000 L286.000000,207.000000 Q297.500000,206.500000 299.750000,209.750000 Q303.500000,212.000000 304.250000,218.750000 L304.250000,387.500000 Q306.250000,396.500000 293.000000,401.250000 L120.750000,401.250000 		"/>
		<path style="stroke:rgb(0,0,0);stroke-width:2.150000;stroke-linecap:round;stroke-linejoin:round;fill:none"
		 d="M293.000000,401.250000 L401.000000,401.000000 L401.000000,110.000000 L110.000000,110.000000 L110.000000,215.750000 		"/>
		<path style="stroke:rgb(0,0,0);stroke-width:2.150000;stroke-linecap:round;stroke-linejoin:round;fill:none"
		 d="M84.250000,449.750000 Q77.500000,449.750000 68.750000,443.250000 L64.500000,438.000000 L62.250000,432.750000 L61.250000,427.000000 L61.250000,89.250000 Q59.250000,80.000000 68.250000,68.500000 L73.000000,64.750000 L78.250000,62.500000 L84.000000,61.500000 L426.750000,61.500000 Q433.500000,61.000000 442.250000,68.000000 Q446.500000,70.250000 449.750000,84.250000 L449.750000,425.500000 Q448.000000,446.750000 427.000000,449.750000 L84.250000,449.750000 		"/>
	</g>
</svg>

<?xml version="1.0" encoding="UTF-8" standalone="no"?>
<!-- Generator: -->

<svg
   width="512pt"
   height="512pt"
   viewBox="0 0 512 512"
   version="1.1"
   id="svg1357"
   sodipodi:docname="windowed.svg"
   inkscape:version="1.1 (c68e22c387, 2021-05-23)"
   xmlns:inkscape="http://www.inkscape.org/namespaces/inkscape"
   xmlns:sodipodi="http://sodipodi.sourceforge.net/DTD/sodipodi-0.dtd"
   xmlns="http://www.w3.org/2000/svg"
   xmlns:svg="http://www.w3.org/2000/svg">
  <defs
     id="defs1361" />
  <sodipodi:namedview
     id="namedview1359"
     pagecolor="#505050"
     bordercolor="#eeeeee"
     borderopacity="1"
     inkscape:pageshadow="0"
     inkscape:pageopacity="0"
     inkscape:pagecheckerboard="0"
     inkscape:document-units="pt"
     showgrid="false"
     inkscape:zoom="0.27575684"
     inkscape:cx="571.15538"
     inkscape:cy="640.05666"
     inkscape:window-width="1920"
     inkscape:window-height="1147"
     inkscape:window-x="-8"
     inkscape:window-y="-8"
     inkscape:window-maximized="1"
     inkscape:current-layer="svg1357" />
  <g
     id="FRAME_0"
     style="visibility:visible"
     fill-rule="evenodd"
     transform="matrix(1.2709164,0,0,1.2709164,-69.169927,-69.248427)">
    <path
       style="opacity:1;fill:#ffffff;stroke-width:0"
       d="m 110,392.5 v 8.75 h 10.75 c -4.33333,-1.16667 -6.66667,-2.16667 -7,-3 L 110,392.5 m 0,-176.75 3,-5 c 1.83333,-2.16667 4.66667,-3.41667 8.5,-3.75 H 286 c 7.66667,-0.33333 12.25,0.58333 13.75,2.75 2.5,1.5 4,4.5 4.5,9 V 387.5 c 1.33333,6 -2.41667,10.58333 -11.25,13.75 L 401,401 V 110 H 110 v 105.75 m 317,234 H 84.25 c -4.5,0 -9.666667,-2.16667 -15.5,-6.5 L 64.5,438 62.25,432.75 61.25,427 V 89.25 c -1.333333,-6.166667 1,-13.083333 7,-20.75 L 73,64.75 78.25,62.5 84,61.5 h 342.75 c 4.5,-0.333333 9.66667,1.833333 15.5,6.5 2.83333,1.5 5.33333,6.916667 7.5,16.25 V 425.5 C 448.58333,439.66667 441,447.75 427,449.75"
       id="path1346"
       sodipodi:nodetypes="ccccccccccccccccccscccccccccccccc" />
    <path
       style="fill:none;stroke:#000000;stroke-width:2.15;stroke-linecap:round;stroke-linejoin:round"
       d="m 110,392.5 v 8.75 h 10.75 q -6.5,-1.75 -7,-3 L 110,392.5 V 215.75 l 3,-5 q 2.75,-3.25 8.5,-3.75 H 286 q 11.5,-0.5 13.75,2.75 3.75,2.25 4.5,9 V 387.5 q 2,9 -11.25,13.75 H 120.75"
       id="path1350" />
    <path
       style="fill:none;stroke:#000000;stroke-width:2.15;stroke-linecap:round;stroke-linejoin:round"
       d="M 293,401.25 401,401 V 110 H 110 v 105.75"
       id="path1352" />
    <path
       style="fill:none;stroke:#000000;stroke-width:2.15;stroke-linecap:round;stroke-linejoin:round"
       d="m 84.25,449.75 q -6.75,0 -15.5,-6.5 L 64.5,438 62.25,432.75 61.25,427 V 89.25 q -2,-9.25 7,-20.75 L 73,64.75 78.25,62.5 84,61.5 h 342.75 q 6.75,-0.5 15.5,6.5 4.25,2.25 7.5,16.25 V 425.5 Q 448,446.75 427,449.75 H 84.25"
       id="path1354" />
  </g>
</svg>
